icons/linkedin.svg

<svg width="24" height="24" viewBox="0 0 24 24" fill="none" xmlns="http://www.w3.org/2000/svg">
<path fill-rule="evenodd" clip-rule="evenodd" d="M9 11C9 10.7348 8.89464 10.4804 8.70711 10.2929C8.51957 10.1054 8.26522 10 8 10C7.73478 10 7.48043 10.1054 7.29289 10.2929C7.10536 10.4804 7 10.7348 7 11V17C7 17.2652 7.10536 17.5196 7.29289 17.7071C7.48043 17.8946 7.73478 18 8 18C8.26522 18 8.51957 17.8946 8.70711 17.7071C8.89464 17.5196 9 17.2652 9 17V11ZM9.5 7.5C9.5 7.89782 9.34196 8.27936 9.06066 8.56066C8.77936 8.84196 8.39782 9 8 9C7.60218 9 7.22064 8.84196 6.93934 8.56066C6.65804 8.27936 6.5 7.89782 6.5 7.5C6.5 7.10218 6.65804 6.72064 6.93934 6.43934C7.22064 6.15804 7.60218 6 8 6C8.39782 6 8.77936 6.15804 9.06066 6.43934C9.34196 6.72064 9.5 7.10218 9.5 7.5ZM12 10C12.34 10 12.64 10.17 12.82 10.428C13.3354 10.1471 13.913 9.99995 14.5 10C16.66 10 18 11.926 18 13.571V17C18 17.2652 17.8946 17.5196 17.7071 17.7071C17.5196 17.8946 17.2652 18 17 18C16.7348 18 16.4804 17.8946 16.2929 17.7071C16.1054 17.5196 16 17.2652 16 17V13.57C16 12.802 15.34 11.999 14.5 11.999C13.976 11.999 13.397 12.284 13 12.962V17C13 17.2652 12.8946 17.5196 12.7071 17.7071C12.5196 17.8946 12.2652 18 12 18C11.7348 18 11.4804 17.8946 11.2929 17.7071C11.1054 17.5196 11 17.2652 11 17V11C11 10.7348 11.1054 10.4804 11.2929 10.2929C11.4804 10.1054 11.7348 10 12 10Z" fill="black"/>
<path d="M12 4C9.526 4 9.122 4.007 7.971 4.058C7.187 4.095 6.661 4.2 6.173 4.39C5.739 4.558 5.426 4.759 5.093 5.093C4.78001 5.3954 4.53935 5.76458 4.389 6.173C4.199 6.663 4.094 7.188 4.058 7.971C4.006 9.075 4 9.461 4 12C4 14.474 4.007 14.878 4.058 16.029C4.095 16.812 4.2 17.339 4.389 17.826C4.559 18.261 4.759 18.574 5.091 18.906C5.428 19.242 5.741 19.443 6.171 19.609C6.665 19.8 7.191 19.906 7.971 19.942C9.075 19.994 9.461 20 12 20C14.474 20 14.878 19.993 16.029 19.942C16.811 19.905 17.338 19.8 17.826 19.611C18.259 19.442 18.574 19.241 18.906 18.909C19.243 18.572 19.444 18.259 19.61 17.829C19.8 17.336 19.906 16.809 19.942 16.029C19.994 14.925 20 14.539 20 12C20 9.526 19.993 9.122 19.942 7.971C19.905 7.189 19.8 6.661 19.61 6.173C19.4593 5.765 19.2191 5.39596 18.907 5.093C18.6047 4.77985 18.2355 4.53917 17.827 4.389C17.337 4.199 16.811 4.094 16.029 4.058C14.925 4.006 14.539 4 12 4ZM12 2C14.717 2 15.056 2.01 16.122 2.06C17.187 2.11 17.912 2.277 18.55 2.525C19.21 2.779 19.766 3.123 20.322 3.678C20.8305 4.1779 21.224 4.78259 21.475 5.45C21.722 6.087 21.89 6.813 21.94 7.878C21.987 8.944 22 9.283 22 12C22 14.717 21.99 15.056 21.94 16.122C21.89 17.187 21.722 17.912 21.475 18.55C21.2247 19.2178 20.8311 19.8226 20.322 20.322C19.822 20.8303 19.2173 21.2238 18.55 21.475C17.913 21.722 17.187 21.89 16.122 21.94C15.056 21.987 14.717 22 12 22C9.283 22 8.944 21.99 7.878 21.94C6.813 21.89 6.088 21.722 5.45 21.475C4.78233 21.2245 4.17753 20.8309 3.678 20.322C3.16941 19.8222 2.77593 19.2175 2.525 18.55C2.277 17.913 2.11 17.187 2.06 16.122C2.013 15.056 2 14.717 2 12C2 9.283 2.01 8.944 2.06 7.878C2.11 6.812 2.277 6.088 2.525 5.45C2.77524 4.78218 3.1688 4.17732 3.678 3.678C4.17767 3.16923 4.78243 2.77573 5.45 2.525C6.088 2.277 6.812 2.11 7.878 2.06C8.944 2.013 9.283 2 12 2Z" fill="black"/>
</svg>

<svg
  width="24"
  height="24"
  viewBox="0 0 24 24"
  xmlns="http://www.w3.org/2000/svg"
>
  <path
    fill-rule="evenodd"
    clip-rule="evenodd"
    d="M9 11a1 1 0 1 0-2 0v6a1 1 0 1 0 2 0v-6zm.5-3.5a1.5 1.5 0 1 1-3 0 1.5 1.5 0 0 1 3 0zM12 10c.34 0 .64.17.82.428A3.51 3.51 0 0 1 14.5 10c2.16 0 3.5 1.926 3.5 3.571V17a1 1 0 0 1-2 0v-3.43c0-.768-.66-1.571-1.5-1.571-.524 0-1.103.285-1.5.963V17a1 1 0 0 1-2 0v-6a1 1 0 0 1 1-1z"
  />
  <path d="M12 4c-2.474 0-2.878.007-4.029.058-.784.037-1.31.142-1.798.332a2.886 2.886 0 0 0-1.08.703 2.89 2.89 0 0 0-.704 1.08c-.19.49-.295 1.015-.331 1.798C4.006 9.075 4 9.461 4 12c0 2.474.007 2.878.058 4.029.037.783.142 1.31.331 1.797.17.435.37.748.702 1.08.337.336.65.537 1.08.703.494.191 1.02.297 1.8.333C9.075 19.994 9.461 20 12 20c2.474 0 2.878-.007 4.029-.058.782-.037 1.309-.142 1.797-.331a2.92 2.92 0 0 0 1.08-.702c.337-.337.538-.65.704-1.08.19-.493.296-1.02.332-1.8.052-1.104.058-1.49.058-4.029 0-2.474-.007-2.878-.058-4.029-.037-.782-.142-1.31-.332-1.798a2.91 2.91 0 0 0-.703-1.08 2.884 2.884 0 0 0-1.08-.704c-.49-.19-1.016-.295-1.798-.331C14.925 4.006 14.539 4 12 4zm0-2c2.717 0 3.056.01 4.122.06 1.065.05 1.79.217 2.428.465.66.254 1.216.598 1.772 1.153.509.5.902 1.105 1.153 1.772.247.637.415 1.363.465 2.428.047 1.066.06 1.405.06 4.122 0 2.717-.01 3.056-.06 4.122-.05 1.065-.218 1.79-.465 2.428a4.883 4.883 0 0 1-1.153 1.772c-.5.508-1.105.902-1.772 1.153-.637.247-1.363.415-2.428.465-1.066.047-1.405.06-4.122.06-2.717 0-3.056-.01-4.122-.06-1.065-.05-1.79-.218-2.428-.465a4.89 4.89 0 0 1-1.772-1.153 4.904 4.904 0 0 1-1.153-1.772c-.248-.637-.415-1.363-.465-2.428C2.013 15.056 2 14.717 2 12c0-2.717.01-3.056.06-4.122.05-1.066.217-1.79.465-2.428a4.88 4.88 0 0 1 1.153-1.772A4.897 4.897 0 0 1 5.45 2.525c.638-.248 1.362-.415 2.428-.465C8.944 2.013 9.283 2 12 2z" />
</svg>
